icons/chevron/up.svg

<svg width="32" height="32" viewBox="0 0 32 32" xmlns="http://www.w3.org/2000/svg"><path fill-rule="evenodd" clip-rule="evenodd" d="M16 10.5858L16.7071 11.2929L23.3738 17.9596L21.9596 19.3738L16 13.4142L10.0404 19.3738L8.62622 17.9596L15.2929 11.2929L16 10.5858Z"/></svg>

<svg viewBox="0 0 32 32" xmlns="http://www.w3.org/2000/svg"><path fill-rule="evenodd" d="M16 10.586l.707.707 6.667 6.667-1.414 1.414-5.96-5.96-5.96 5.96-1.414-1.414 6.667-6.667.707-.707z"/></svg>
